docs/icons/license/by.svg

<?xml version="1.0" encoding="utf-8"?>
<!-- Generator: Adobe Illustrator 13.0.2, SVG Export Plug-In . SVG Version: 6.00 Build 14948)  -->
<!DOCTYPE svg PUBLIC "-//W3C//DTD SVG 1.0//EN" "http://www.w3.org/TR/2001/REC-SVG-20010904/DTD/svg10.dtd">
<svg version="1.0" id="Layer_1" xmlns="http://www.w3.org/2000/svg" xmlns:xlink="http://www.w3.org/1999/xlink" x="0px" y="0px"
	 width="64px" height="64px" viewBox="5.5 -3.5 64 64" enable-background="new 5.5 -3.5 64 64" xml:space="preserve">
<g>
	<circle fill="#FFFFFF" cx="37.637" cy="28.806" r="28.276"/>
	<g>
		<path d="M37.443-3.5c8.988,0,16.57,3.085,22.742,9.257C66.393,11.967,69.5,19.548,69.5,28.5c0,8.991-3.049,16.476-9.145,22.456
			C53.879,57.319,46.242,60.5,37.443,60.5c-8.649,0-16.153-3.144-22.514-9.43C8.644,44.784,5.5,37.262,5.5,28.5
			c0-8.761,3.144-16.342,9.429-22.742C21.101-0.415,28.604-3.5,37.443-3.5z M37.557,2.272c-7.276,0-13.428,2.553-18.457,7.657
			c-5.22,5.334-7.829,11.525-7.829,18.572c0,7.086,2.59,13.22,7.77,18.398c5.181,5.182,11.352,7.771,18.514,7.771
			c7.123,0,13.334-2.607,18.629-7.828c5.029-4.838,7.543-10.952,7.543-18.343c0-7.276-2.553-13.465-7.656-18.571
			C50.967,4.824,44.795,2.272,37.557,2.272z M46.129,20.557v13.085h-3.656v15.542h-9.944V33.643h-3.656V20.557
			c0-0.572,0.2-1.057,0.599-1.457c0.401-0.399,0.887-0.6,1.457-0.6h13.144c0.533,0,1.01,0.2,1.428,0.6
			C45.918,19.5,46.129,19.986,46.129,20.557z M33.042,12.329c0-3.008,1.485-4.514,4.458-4.514s4.457,1.504,4.457,4.514
			c0,2.971-1.486,4.457-4.457,4.457S33.042,15.3,33.042,12.329z"/>
	</g>
</g>
</svg>

<?xml version="1.0" encoding="UTF-8" standalone="no"?>
<!-- Generator: Adobe Illustrator 13.0.2, SVG Export Plug-In . SVG Version: 6.00 Build 14948)  -->

<svg
   version="1.0"
   id="Layer_1"
   x="0px"
   y="0px"
   width="64"
   height="64"
   viewBox="5.5 -3.5 64 64"
   enable-background="new 5.5 -3.5 64 64"
   xml:space="preserve"
   sodipodi:docname="by.svg"
   inkscape:export-filename="by.svg"
   inkscape:export-xdpi="96"
   inkscape:export-ydpi="96"
   xmlns:inkscape="http://www.inkscape.org/namespaces/inkscape"
   xmlns:sodipodi="http://sodipodi.sourceforge.net/DTD/sodipodi-0.dtd"
   xmlns="http://www.w3.org/2000/svg"
   xmlns:svg="http://www.w3.org/2000/svg"><defs
   id="defs13" /><sodipodi:namedview
   id="namedview11"
   pagecolor="#505050"
   bordercolor="#eeeeee"
   borderopacity="1"
   inkscape:showpageshadow="0"
   inkscape:pageopacity="0"
   inkscape:pagecheckerboard="0"
   inkscape:deskcolor="#505050"
   showgrid="false" />
<g
   id="g8">
	
	<g
   id="g6"
   style="fill:#161616;fill-opacity:1">
		<path
   d="m 37.443,-3.5 c 8.988,0 16.57,3.085 22.742,9.257 6.208,6.21 9.315,13.791 9.315,22.743 0,8.991 -3.049,16.476 -9.145,22.456 C 53.879,57.319 46.242,60.5 37.443,60.5 28.794,60.5 21.29,57.356 14.929,51.07 8.644,44.784 5.5,37.262 5.5,28.5 5.5,19.739 8.644,12.158 14.929,5.758 21.101,-0.415 28.604,-3.5 37.443,-3.5 Z m 0.114,5.772 c -7.276,0 -13.428,2.553 -18.457,7.657 -5.22,5.334 -7.829,11.525 -7.829,18.572 0,7.086 2.59,13.22 7.77,18.398 5.181,5.182 11.352,7.771 18.514,7.771 7.123,0 13.334,-2.607 18.629,-7.828 5.029,-4.838 7.543,-10.952 7.543,-18.343 0,-7.276 -2.553,-13.465 -7.656,-18.571 C 50.967,4.824 44.795,2.272 37.557,2.272 Z m 8.572,18.285 V 33.642 H 42.473 V 49.184 H 32.529 V 33.643 H 28.873 V 20.557 c 0,-0.572 0.2,-1.057 0.599,-1.457 0.401,-0.399 0.887,-0.6 1.457,-0.6 h 13.144 c 0.533,0 1.01,0.2 1.428,0.6 0.417,0.4 0.628,0.886 0.628,1.457 z M 33.042,12.329 c 0,-3.008 1.485,-4.514 4.458,-4.514 2.973,0 4.457,1.504 4.457,4.514 0,2.971 -1.486,4.457 -4.457,4.457 -2.971,0 -4.458,-1.486 -4.458,-4.457 z"
   id="path4"
   style="fill:#161616;fill-opacity:1" />
	</g>
</g>
</svg>
